X: 20123
T: Jimmy's Favourite
R: jig
M: 6/8
K: Gmajor
|:d|gbg gdB|G2 G GAB|cdc cBA|E3 E2 A|
f2 f fed|faf f2 e|1 ded ded|B3 B2:|2 ded def|g3 g2||
|:D|G2 G GDB,|GDB, GDB,|G2 G GAB|c3 c2 A|
F2 F FED|FED FED|FGA cBA|G3 G2:|

